src/images/single-assets/ONG.svg

<svg enable-background="new 0 0 500 500" viewBox="0 0 500 500" xmlns="http://www.w3.org/2000/svg"><path d="m367.2 331.9-235.5-238v119m.1 0c0 30.5 11.5 60.9 34.5 84.2 46 46.5 120.5 46.5 166.5 0l-166.5-168.4m-34.5-34.8 235.5 238v-119m-.1 0c0-30.5-11.5-60.9-34.5-84.2-46-46.5-120.5-46.5-166.5 0l166.6 168.3m-201 19.5v44.8m118.2 0v44.8m118.2-48.2v29.9" style="fill:none;stroke:#48a3ff;stroke-width:17.3478;stroke-linecap:round;stroke-linejoin:round;stroke-miterlimit:10"/></svg>

<?xml version="1.0" encoding="utf-8"?>
<!-- Generator: Adobe Illustrator 24.0.0, SVG Export Plug-In . SVG Version: 6.00 Build 0)  -->
<svg version="1.1" id="图层_1" xmlns="http://www.w3.org/2000/svg" xmlns:xlink="http://www.w3.org/1999/xlink" x="0px" y="0px"
	 viewBox="0 0 500 500" style="enable-background:new 0 0 500 500;" xml:space="preserve">
<style type="text/css">
	.st0{fill:none;stroke:#48A3FF;stroke-width:17.3478;stroke-linecap:round;stroke-linejoin:round;stroke-miterlimit:10;}
</style>
<g>
	<g>
		<path class="st0" d="M367.2,331.9l-235.5-238v119 M131.8,212.9c0,30.5,11.5,60.9,34.5,84.2c46,46.5,120.5,46.5,166.5,0
			L166.3,128.7 M131.8,93.9l235.5,238v-119 M367.2,212.9c0-30.5-11.5-60.9-34.5-84.2c-46-46.5-120.5-46.5-166.5,0L332.8,297
			 M131.8,316.5v44.8 M250,361.3v44.8 M368.2,357.9v29.9"/>
	</g>
</g>
</svg>
